X:1
T:James Gibb editions
T:Jesus, who calledst little ones to Thee - Barnby
%%score [ ( 1 2 ) ( 3 4 ) ]
L:1/8
Q:1/4=84
M:4/4
K:F
V:1 treble nm="Midi_74"
V:2 treble 
V:3 bass nm="Midi_74"
V:4 bass 
V:1
"^Charles Edward Mudie\n(1818-90)""^Jesus, who calledst little ones to Thee""^Whatley (10 4. 10 4. 10 10)""^Joseph Barnby\n(1838-96)" C2 | %1
"^1" F2 E2 G2 F2 | c2 B2 A2 G2 | F2 || G2 C2 E2 | F6 || F2 | B2 A2 d2 c2 | f2 e2 d2 =B2 | c2 | %10
 G2 G2 F2 | E6 ||[M:4/4] E2 | F2 c2 B2 A2 | G2 G2 A2 D2 | B6 || B2 |"^1" A2 G2 F2 G2 | C2 A2 G3 F | %19
 F6 || F4 F4 |] %21
V:2
 C2 | C2 C2 C2 C2 | C2 G2 F2 E2 | F2 || D2 C2 C2 | C6 || F2 | F2 F2 F2 G2 | F2 G2 G2 G2 | G2 | %10
 G,2 A,2 =B,2 | C6 ||[M:4/4] C2 | C2 _E2 F2 E2 | D2 B,2 _E2 D2 | D6 || D2 | ^C2 E2 D2 D2 | %18
 C2 F2 E3 F | C6 || D4 C4 |] %21
V:3
 A,2 | A,2 G,2 B,2 A,2 | G,2 C2 C2 B,2 | A,2 || G,2 A,2 B,2 | A,6 || A,2 | B,2 C2 D2 E2 | %8
 C2 C2 =B,2 D2 | C2 | C2 C2 D2 | G,6 || %12
[M:4/4]"^1 Jesus, who calledst little ones to Thee,\n To Thee I come;\nO take my hand in Thine, and speak to me,\n And lead me home;\nLest from the path of life my feet should stray,\nAnd Satan prowling make Thy lamb his prey.\n\n2 I love to think that Thou with holy feet\n My path hast trod;\nAlong life's common lanes an dusty street\n Hast walked with God;\nOn Mary's bosom drawn an infant's breath,\nAnd served Thy parents dear at Nazareth." G,2 | %13
 F,2 F,2 D2 C2 | B,2 G,2 G,2 ^F,2 | G,6 || G,2 | %17
"^3 O gentle Jesus, make this heart of mine,\n So full of sin,\nAs holy, harmless, undefiled, as Thine,\n And dwell therein;\nThen God my Father I, like Thee, shall know,\nAnd grow in wisdom as in strength I grow.\n\n4 To Thee, my Saviour, then, with morning light\n Glad songs I'll raise,\nMy saddest hours and darkest shall be bright\n With silent praise;\nAnd should my work or play my thoughts employ,\nThy will shall be my law, Thy love my joy." E,2 A,2 A,2 G,2 | %18
 A,2 C2 B,3 A, | A,6 || B,4 A,4 |] %21
V:4
 F,2 | F,2 F,2 F,2 F,2 | E,2 E,2 F,2 C,2 | D,2 || B,,2 C,2 C,2 | F,6 || F,2 | D,2 C,2 B,,2 B,2 | %8
 A,2 G,2 F,2 F,2 | E,2 | E,2 D,2 G,,2 | C,6 ||[M:4/4] B,,2 | A,,2 A,,2 B,,2 C,2 | %14
 D,2 _E,2 C,2 D,2 | G,6 || G,,2 | A,,2 ^C,2 D,2 B,,2 | C,2 F,2 C,3 F, | F,6 || B,,4 F,4 |] %21

